packages/ui/src/assets/external.svg

<svg width="25" height="23" fill="none" xmlns="http://www.w3.org/2000/svg"><path d="M15 4V1H0v22h24V10h-3v10H3V4h12Z" fill="#F8971E"/><path d="M17 1V0h8v8h-2V4L13 14l-2-2L21 2h-4V1Z" fill="#F8971E"/></svg>

<svg width="25" height="23" viewBox="0 0 25 23" fill="none" xmlns="http://www.w3.org/2000/svg">
<path d="M15 4V2V1H0V23H24V10H21V20H3V4H15Z" fill="#F8971E"/>
<path d="M17 1V0H25V8H23V4L13 14L11 12L21 2H17V1Z" fill="#F8971E"/>
</svg>
